X:1
T:Title
%%score { ( 1 3 ) | ( 2 4 ) }
L:1/8
M:4/4
K:G
V:1 treble nm="Grand Piano"
V:3 treble 
V:2 treble 
V:4 treble 
V:1
 z4 z2[Q:1/4=100] GB | d2 d2 d2 ed | B>G AB [B,DG]2 [B,G][DGB] | d2 d2 edB[DG] |[M:3/4] [DFA]4 z2 | %5
[M:1/4] GB |[M:4/4] d2 d2 d2 ed | B>G AB [B,DG]2 [DF][EG] | [FA]>[GB] [FA][Fd] ^cA[^CG][CE] | %9
[M:3/4] D4 z2 |[M:11/32] d/4-d/4-d/4-d/4-d/4-d/4-d/-<d/ z/4 |[M:4/4] (9:8:7B2 B2- B/ BAB3/2c | %12
 (5:4:4d2 B/ GE3/2 z2 (3:2:2[B,D]3/2[B,DG]3/2 | (9:8:7B2 B2- B/ cBA3/2G | %14
[M:3/4] [FA]4- [FA]/4 z/4 z/ z |[M:1/4] (3:2:2G3/2B3/2 |[M:4/4] (9:8:7d2 d2- d/ ed[DB]3/2[B,G] | %17
 (9:8:8AGF3/2E [B,D]/-[B,D]3/2[B,D]3/2[B,DG] | %18
 (9:8:7[DGB]2 [DGB]2- [DGB]/ [DGB][B,DG][CDA]3/2[DB] |[M:3/4] [B,DG]6 |] %20
V:2
 z4 z2 [G,B,D][G,D] | [G,B,G]2 [G,B,G]2 [G,B,G]2 [G,CG][G,B,G] | %2
 [G,DG]>[K:bass][G,B,D] [D,CD][D,D] G,,2 G,,G,, | %3
 [G,B,G]2 [G,B,G]2 [G,CG][G,B,G][G,DG][K:bass]B,, |[M:3/4] D,4 z2 |[M:1/4][K:treble] [G,B,][G,DG] | %6
[M:4/4] [G,B,G]2 [G,B,G]2 [G,B,G]2 [G,CG][G,B,G] | %7
 [G,DG]>[K:bass][G,B,D] [D,CD][D,D] G,,2 D,[D,D] | %8
 [D,D]>[D,D] [D,D][D,A,] [A,E][A,^C][A,,A,][A,,G,] |[M:3/4] [D,F,]4 z2 | %10
[M:11/32] [F,D]/4-[F,D]/4-[F,D]/4-[F,D]/4-[F,D]/-<[F,D]/[C,F,D]3/4 | %11
[M:4/4] (9:8:7[G,D]2 [G,D]2- [G,D]/ [G,D][G,D][G,D]3/2[G,A,D] | %12
 (5:4:4[G,B,D]2 [G,D]/ [G,B,][G,C]3/2 z2 (3:2:2[G,,G,]3/2G,,3/2 | %13
 (9:8:7[G,DG]2 [G,DG]2- [G,DG]/ [G,EG][G,DG][G,CG]3/2[G,B,][K:bass] | %14
[M:3/4] [D,D]4- [D,D]/4 z/4 z/ z |[M:1/4][K:treble] (3:2:2[G,B,]3/2[G,DG]3/2 | %16
[M:4/4] (9:8:7[G,B,G]2 [G,B,G]2- [G,B,G]/ [G,CG][G,B,G][G,,G,]3/2[K:bass][G,,D,] | %17
 (9:8:8[C,E,C][C,E,C][C,G,C]3/2[C,G,C] [G,,G,]/-[G,,G,]3/2[G,,G,]3/2G,, | %18
 (9:8:7G,2 G,2- G,/ D,D,D,3/2D, |[M:3/4] G,,6 |] %20
V:3
 x8 | x8 | x8 | x8 |[M:3/4] x6 |[M:1/4] x2 |[M:4/4] x8 | x8 | x8 |[M:3/4] x6 | %10
[M:11/32] z/4 z/4 z/4 z/4 z/4 z/4 z/ c3/4 |[M:4/4] x8 | z4 [B,D]2- [B,D]/4 z/4 z/ z | x8 | %14
[M:3/4] x6 |[M:1/4] x2 |[M:4/4] x8 | x8 | x8 |[M:3/4] x6 |] %20
V:4
 x8 | x8 | x3/2[K:bass] x13/2 | x7[K:bass] x |[M:3/4] x6 |[M:1/4][K:treble] x2 |[M:4/4] x8 | %7
 x3/2[K:bass] x13/2 | x8 |[M:3/4] x6 |[M:11/32] D,/4-D,/4-D,/4-D,/4-D,/4-D,/4-D,/-<D,/ z/4 | %11
[M:4/4] x8 | z4 [G,,G,]2- [G,,G,]/4 z/4 z/ z | x7[K:bass] x57/64 |[M:3/4] x6 | %15
[M:1/4][K:treble] x2 |[M:4/4] x185/32[K:bass] x2 | x8 | x8 |[M:3/4] x6 |] %20

